X:0068
T:The Ducks dang o'er my Dadie.
T:The Deuks dang oer my Daddie
T:The bairns gat out wi an unco shout
M:6/8
L:1/8
Q:3/8=112
I: :: ::
% D E ^F A B ^c d e ^f g
Z:Jack Campin * www.campin.me.uk * 2009
K:D
(f/e/)|d2A FED|EFE cBc |d2A F2E|FDD D2:|
 A    |dcd Bcd|efd cBA |dcd efg|fdd d2
 f    |gfg Bcd|efd c>Bc|d2A F2E|FDD D2:|
<end>
<start>
